X:230
T: FRISCH AUF ZUM KAMPF
N: E1369
O: Europa, Mitteleuropa, Deutschland, Hessen, Oberhessen; Wetterau
R: Staende -, Soldaten -, Kriegs - Lied
M: 4/4
L: 1/8
K: G
DEF | G2B2BBAB | cAA2z
DEF | G2B2BBAG | A4z
AAB | c2d2e2d2 | dBB2z
ded | dcc2DcBA | G4z
AAB | c2d2e2d2 | dBB2z
ded | dcc2DcBA | G4z

@@@ Tune index: 4914
